X: 16
T:Pinky Exercises
C:
N:Transcribed by Terry G Martin
L:1/8
Q:1/4=120
M:4/4
K:C
z8 | z8 | "First position t"G,D G,D G,D G,D | A,D A,D A,D A,D | _B,D B,D B,D B,D | 
B,D B,D B,D B,D | CD CD CD CD | ^CD CD CD CD | CD CD CD CD | B,D B,D B,D B,D | 
_B,D B,D B,D B,D | A,D A,D A,D A,D | G,D G,D G,D G,D | DA, DA, DA, DA, | EA, EA, EA, EA, | 
FA, FA, FA, FA, | ^FA, FA, FA, FA, | G,A, G,A, G,A, G,A, | ^G,A, G,A, G,A, G,A, | 
G,A, G,A, G,A, G,A, | ^FA, FA, FA, FA, | FA, FA, FA, FA, | EA, EA, EA, EA, | DA, DA, DA, DA, | 
A,E A,E A,E A,E | B,E B,E B,E B,E | CE CE CE CE | ^CE CE CE CE | DE DE DE DE | 
^DE DE DE DE | DE DE DE DE | ^CE CE CE CE | CE CE CE CE | B,E B,E B,E B,E | A,E A,E A,E A,E | 
EB EB EB EB | ^FB FB FB FB | GB GB GB GB | ^GB GB GB GB | AB AB AB AB | _B=B _B=B _B=B _B=B | 
AB AB AB AB | ^GB GB GB GB | GB GB GB GB | ^FB FB FB FB | EB EB EB EB | G,D G,D G,D G,D | 
G,D G,D G,D G,D | A,D A,D A,D A,D | A,D A,D A,D A,D | _B,D B,D B,D B,D | _B,D B,D B,D B,D | 
B,D B,D B,D B,D | B,D B,D B,D B,D | CD CD CD CD | CD CD CD CD | ^CD CD CD CD | 
^CD CD CD CD | CD CD CD CD | CD CD CD CD | B,D B,D B,D B,D | B,D B,D B,D B,D | 
_B,D B,D B,D B,D | _B,D B,D B,D B,D | A,D A,D A,D A,D | A,D A,D A,D A,D | G,D G,D G,D G,D | 
G,D G,D G,D G,D | DA, DA, DA, DA, | DA, DA, DA, DA, | EA, EA, EA, EA, | EA, EA, EA, EA, | 
FA, FA, FA, FA, | FA, FA, FA, FA, | ^FA, FA, FA, FA, | ^FA, FA, FA, FA, | G,A, G,A, G,A, G,A, | 
G,A, G,A, G,A, G,A, | ^G,A, G,A, G,A, G,A, | ^G,A, G,A, G,A, G,A, | G,A, G,A, G,A, G,A, | 
G,A, G,A, G,A, G,A, | ^FA, FA, FA, FA, | ^FA, FA, FA, FA, | FA, FA, FA, FA, | 
FA, FA, FA, FA, | EA, EA, EA, EA, | EA, EA, EA, EA, | DA, DA, DA, DA, | DA, DA, DA, DA, | 
A,E A,E A,E A,E | A,E A,E A,E A,E | B,E B,E B,E B,E | B,E B,E B,E B,E | CE CE CE CE | 
CE CE CE CE | ^CE CE CE CE | ^CE CE CE CE | DE DE DE DE | DE DE DE DE | ^DE DE DE DE | 
^DE DE DE DE | DE DE DE DE | DE DE DE DE | ^CE CE CE CE | ^CE CE CE CE | CE CE CE CE | 
CE CE CE CE | B,E B,E B,E B,E | B,E B,E B,E B,E | A,E A,E A,E A,E | A,E A,E A,E A,E | 
EB EB EB EB | EB EB EB EB | ^FB FB FB FB | ^FB FB FB FB | GB GB GB GB | GB GB GB GB | 
^GB GB GB GB | ^GB GB GB GB | AB AB AB AB | AB AB AB AB | _B=B _B=B _B=B _B=B | 
_B=B _B=B _B=B _B=B | AB AB AB AB | AB AB AB AB | ^GB GB GB GB | ^GB GB GB GB | 
GB GB GB GB | GB GB GB GB | ^FB FB FB FB | ^FB FB FB FB | EB EB EB EB | EB EB EB EB |

